app/ui/static/images/icons/solid/envelope-open.svg

<svg width="20" height="20" viewBox="0 0 20 20" fill="none" xmlns="http://www.w3.org/2000/svg">
<path fill-rule="evenodd" clip-rule="evenodd" d="M2.10557 6.44723C1.428 6.78601 1 7.47854 1 8.23608V16C1 17.1046 1.89543 18 3 18H17C18.1046 18 19 17.1046 19 16V8.23608C19 7.47854 18.572 6.78601 17.8944 6.44723L10.8944 2.94723C10.3314 2.6657 9.66863 2.6657 9.10557 2.94723L2.10557 6.44723ZM3.58541 10.4542C3.21493 10.269 2.76442 10.4191 2.57918 10.7896C2.39394 11.1601 2.54411 11.6106 2.91459 11.7958L8.77016 14.7236C9.54436 15.1107 10.4556 15.1107 11.2298 14.7236L17.0823 11.7974C17.4528 11.6122 17.6029 11.1617 17.4177 10.7912C17.2325 10.4207 16.7819 10.2705 16.4115 10.4558L10.559 13.382C10.2071 13.5579 9.79289 13.5579 9.44098 13.382L3.58541 10.4542Z" fill="#0F172A"/>
</svg>

<svg xmlns="http://www.w3.org/2000/svg" viewBox="0 0 20 20" fill="currentColor" aria-hidden="true">
  <path fill-rule="evenodd" d="M2.106 6.447A2 2 0 001 8.237V16a2 2 0 002 2h14a2 2 0 002-2V8.236a2 2 0 00-1.106-1.789l-7-3.5a2 2 0 00-1.788 0l-7 3.5zm1.48 4.007a.75.75 0 00-.671 1.342l5.855 2.928a2.75 2.75 0 002.46 0l5.852-2.926a.75.75 0 10-.67-1.342l-5.853 2.926a1.25 1.25 0 01-1.118 0l-5.856-2.928z" clip-rule="evenodd"/>
</svg>
